X: 3317
T: AIR FROM "LUCREZIA BORGIA."
%R: air, waltz
B: James Kerr "Merry Melodies" v.3 p.34 #317
Z: 2016 John Chambers <jc:trillian.mit.edu>
M: 3/4
L: 1/4
K: G
ud |\
ded | (g2f) | f^de | e3 |\
ABc | (e2d) | d^AB | B2 ud |\
ded | (g2f) | f^de | e3 |\
edc | (e2d) | d^AB | B3 |
gfg | age | edB | B3 |\
gfg | age | edB | B3 |\
ggg | ^g2g | a3 | e2e |\
dfg | aef | "D.C. to Allegro."g3- | gz |]

%%center HORNPIPES.

%%sep 1 1 500
%%sep 1 1 500

